!!!OTL: Nonnenlied.
!!!OTL-incipit: VATER IST DENN NICHT ERSCHAFFEN
!!!ARE: Europa, Mitteleuropa, Deutschland, Niederrhein
!!!SCT: Z1247
!!!TXL: @@DE
!!!YEM: Copyright 1995, estate of Helmut Schaffrath.
**kern	**text
*ICvox	*
*M4/4	*
*met(c)	*
*k[b-e-]	*
*B-:	*
!LO:TX:a:t=Vom Niederrhein.	!
{8b-/	Va-
8f	-ter,
=1	=1
4f	iſt
4b-/	denn
8cc	nicht
8b-	er-
8a	-ſchaf-
8g	-fen
=2	=2
8f	für
8e-	mich
4d	ei-
4b-	-ne
8a	Männlich-
8cc	.
=3	=3
(4cc	-keit?
4b-)	.
4r}	.
{8b-/	daß
8g	ich
=4	=4
4f	ganʒ
4b-	al-
8cc	-lein
8b-	muß
8a	ſchlafen,
8g	.
=5	=5
8f	in
8e-	dem
4d	Bett
4b-	der
8a	Ein-
8cc	-ſam-
=6	=6
(4cc	-keit,
4b-)	.
4r}	.
{8a	und
8b-/	in
=7	=7
4cc	mei-
4dd	-nen
8ee-	jun-
8dd	-gen
8cc	Jahren
8b-	.
=8	=8
8a	mei-
8b-/	-ne
4cc	Haa-
4dd	-re
8ee-	laſ-
8dd	-ſe
=9	=9
8cc	ſchaaren,
8b-}	.
{8a	die
8g	von
4f	Gold
4b-	be-
=10	=10
8a	-glän-
8cc	-ʒet
(4cc	ſind!
4b-);}	.
==	==
!!!AGN: Liebes - Lied
!!!ONB: ESAC (Essen Associative Code) Database: ZUCCAL
!!!AMT: simple quadruple
!!!AIN: vox
!!!EED: Helmut Schaffrath
!!!EEV: 1.0
!!!GTL: V. Lieder der Minne.
!!!URL-scan: https://www.digitale-sammlungen.de/de/view/bsb11160573?page=460
!!!ENC: Anna Maria Matuszewska
!!!EEV: 2025/02/06
*-	*-
